icon-themes/breeze_svg/cmd/sc_datainrows.svg

<svg viewBox="0 0 16 16" xmlns="http://www.w3.org/2000/svg">/&gt;<path d="m2 2v12h1 6 1 3 1v-9-2-1zm5 1h2v2h-2zm3 0h3v2h-3zm-3 3h2v3h-2zm3 0h1 1 1v3h-1-1-1zm-3 4h2v3h-2zm3 0h1 1 1v3h-1-1-1z" fill="#4d4d4d"/></svg>

<svg xmlns="http://www.w3.org/2000/svg" viewBox="0 0 16 16">
     />
 <path 
     style="fill:#4d4d4d" 
     d="M 2 2 L 2 14 L 3 14 L 9 14 L 10 14 L 13 14 L 14 14 L 14 5 L 14 3 L 14 2 L 2 2 z M 7 3 L 9 3 L 9 5 L 7 5 L 7 3 z M 10 3 L 13 3 L 13 5 L 10 5 L 10 3 z M 7 6 L 9 6 L 9 9 L 7 9 L 7 6 z M 10 6 L 11 6 L 12 6 L 13 6 L 13 9 L 12 9 L 11 9 L 10 9 L 10 6 z M 7 10 L 9 10 L 9 13 L 7 13 L 7 10 z M 10 10 L 11 10 L 12 10 L 13 10 L 13 13 L 12 13 L 11 13 L 10 13 L 10 10 z "
     />
 </svg>
